Numix-Circle/48x48/apps/steam_icon_232790.svg

<?xml version="1.0" encoding="UTF-8" standalone="no"?>
<svg
   xmlns:dc="http://purl.org/dc/elements/1.1/"
   xmlns:cc="http://creativecommons.org/ns#"
   xmlns:rdf="http://www.w3.org/1999/02/22-rdf-syntax-ns#"
   xmlns:svg="http://www.w3.org/2000/svg"
   xmlns="http://www.w3.org/2000/svg"
   xmlns:sodipodi="http://sodipodi.sourceforge.net/DTD/sodipodi-0.dtd"
   xmlns:inkscape="http://www.inkscape.org/namespaces/inkscape"
   viewBox="0 0 48 48"
   id="svg2"
   version="1.1"
   inkscape:version="0.48.5 r10040"
   width="100%"
   height="100%"
   sodipodi:docname="steam_icon_232790.svg">
  <metadata
     id="metadata61">
    <rdf:RDF>
      <cc:Work
         rdf:about="">
        <dc:format>image/svg+xml</dc:format>
        <dc:type
           rdf:resource="http://purl.org/dc/dcmitype/StillImage" />
      </cc:Work>
    </rdf:RDF>
  </metadata>
  <sodipodi:namedview
     pagecolor="#ffffff"
     bordercolor="#666666"
     borderopacity="1"
     objecttolerance="10"
     gridtolerance="10"
     guidetolerance="10"
     inkscape:pageopacity="0"
     inkscape:pageshadow="2"
     inkscape:window-width="1280"
     inkscape:window-height="998"
     id="namedview59"
     showgrid="true"
     inkscape:zoom="3.4342407"
     inkscape:cx="3.6679657"
     inkscape:cy="91.118153"
     inkscape:window-x="0"
     inkscape:window-y="0"
     inkscape:window-maximized="1"
     inkscape:current-layer="svg2">
    <inkscape:grid
       type="xygrid"
       id="grid3055" />
  </sodipodi:namedview>
  <defs
     id="defs4">
    <linearGradient
       id="linearGradient3764"
       x1="1"
       x2="47"
       gradientUnits="userSpaceOnUse"
       gradientTransform="matrix(0,-1,1,0,-1.5e-6,47.999998)">
      <stop
         stop-color="#8f3767"
         stop-opacity="1"
         id="stop7" />
      <stop
         offset="1"
         stop-color="#9d3c70"
         stop-opacity="1"
         id="stop9" />
    </linearGradient>
    <clipPath
       id="clipPath-070300476">
      <g
         transform="translate(0,-1004.3622)"
         id="g12">
        <path
           d="m -24 13 c 0 1.105 -0.672 2 -1.5 2 -0.828 0 -1.5 -0.895 -1.5 -2 0 -1.105 0.672 -2 1.5 -2 0.828 0 1.5 0.895 1.5 2 z"
           transform="matrix(15.333333,0,0,11.5,414.99999,878.8622)"
           fill="#1890d0"
           id="path14" />
      </g>
    </clipPath>
    <clipPath
       id="clipPath-080148575">
      <g
         transform="translate(0,-1004.3622)"
         id="g17">
        <path
           d="m -24 13 c 0 1.105 -0.672 2 -1.5 2 -0.828 0 -1.5 -0.895 -1.5 -2 0 -1.105 0.672 -2 1.5 -2 0.828 0 1.5 0.895 1.5 2 z"
           transform="matrix(15.333333,0,0,11.5,414.99999,878.8622)"
           fill="#1890d0"
           id="path19" />
      </g>
    </clipPath>
    <clipPath
       clipPathUnits="userSpaceOnUse"
       id="clipPath3051">
      <rect
         style="opacity:0.1;fill:#000000;fill-opacity:1;fill-rule:nonzero;stroke:none"
         id="rect3053"
         width="36.170311"
         height="35.01976"
         x="-12.152649"
         y="-33.904537" />
    </clipPath>
  </defs>
  <g
     id="g21">
    <path
       d="m 36.31 5 c 5.859 4.062 9.688 10.831 9.688 18.5 c 0 12.426 -10.07 22.5 -22.5 22.5 c -7.669 0 -14.438 -3.828 -18.5 -9.688 c 1.037 1.822 2.306 3.499 3.781 4.969 c 4.085 3.712 9.514 5.969 15.469 5.969 c 12.703 0 23 -10.298 23 -23 c 0 -5.954 -2.256 -11.384 -5.969 -15.469 c -1.469 -1.475 -3.147 -2.744 -4.969 -3.781 z m 4.969 3.781 c 3.854 4.113 6.219 9.637 6.219 15.719 c 0 12.703 -10.297 23 -23 23 c -6.081 0 -11.606 -2.364 -15.719 -6.219 c 4.16 4.144 9.883 6.719 16.219 6.719 c 12.703 0 23 -10.298 23 -23 c 0 -6.335 -2.575 -12.06 -6.719 -16.219 z"
       opacity="0.05"
       id="path23" />
    <path
       d="m 41.28 8.781 c 3.712 4.085 5.969 9.514 5.969 15.469 c 0 12.703 -10.297 23 -23 23 c -5.954 0 -11.384 -2.256 -15.469 -5.969 c 4.113 3.854 9.637 6.219 15.719 6.219 c 12.703 0 23 -10.298 23 -23 c 0 -6.081 -2.364 -11.606 -6.219 -15.719 z"
       opacity="0.1"
       id="path25" />
    <path
       d="m 31.25 2.375 c 8.615 3.154 14.75 11.417 14.75 21.13 c 0 12.426 -10.07 22.5 -22.5 22.5 c -9.708 0 -17.971 -6.135 -21.12 -14.75 a 23 23 0 0 0 44.875 -7 a 23 23 0 0 0 -16 -21.875 z"
       opacity="0.2"
       id="path27" />
  </g>
  <g
     id="g29"
     style="fill:#409686;fill-opacity:1">
    <path
       d="m 24 1 c 12.703 0 23 10.297 23 23 c 0 12.703 -10.297 23 -23 23 -12.703 0 -23 -10.297 -23 -23 0 -12.703 10.297 -23 23 -23 z"
       fill="url(#linearGradient3764)"
       fill-opacity="1"
       id="path31"
       style="fill:#409686;fill-opacity:1" />
  </g>
  <g
     id="g33" />
  <g
     id="g55">
    <path
       d="m 40.03 7.531 c 3.712 4.084 5.969 9.514 5.969 15.469 0 12.703 -10.297 23 -23 23 c -5.954 0 -11.384 -2.256 -15.469 -5.969 4.178 4.291 10.01 6.969 16.469 6.969 c 12.703 0 23 -10.298 23 -23 0 -6.462 -2.677 -12.291 -6.969 -16.469 z"
       opacity="0.1"
       id="path57" />
  </g>
  <path
     id="path3844"
     d="m 24.937506,9.999994 c -1.14805,0.00533 -9.785723,3.621939 -10.59375,4.4375 -0.808027,0.815561 -4.3490774,9.47695 -4.34375,10.625 0.0053,1.14805 3.621939,9.785723 4.4375,10.59375 0.815561,0.808027 9.47695,4.349077 10.625,4.34375 1.14805,-0.0053 9.785723,-3.621939 10.59375,-4.4375 0.808027,-0.815561 4.349077,-9.47695 4.34375,-10.625 -0.0053,-1.14805 -3.621939,-9.785723 -4.4375,-10.59375 -0.815561,-0.808027 -9.47695,-4.3490774 -10.625,-4.34375 z m -0.0625,4.53125 10.84375,10.375 -10.625,11.09375 -10.84375,-10.34375 10.625,-11.125 z m 0.125,4.46875 c -3.313708,0 -6,2.686292 -6,6 0,3.313708 2.686292,6 6,6 3.313708,0 6,-2.686292 6,-6 0,-3.313708 -2.686292,-6 -6,-6 z"
     style="fill:#000000;fill-opacity:1;fill-rule:nonzero;stroke:none;opacity:0.1"
     inkscape:connector-curvature="0" />
  <path
     style="opacity:1;fill:#fdf568;fill-opacity:1;fill-rule:nonzero;stroke:none"
     d="M 23.9375 9 C 22.78945 9.0053274 14.151777 12.621939 13.34375 13.4375 C 12.535723 14.253061 8.9946726 22.91445 9 24.0625 C 9.0053274 25.21055 12.621939 33.848223 13.4375 34.65625 C 14.253061 35.464277 22.91445 39.005327 24.0625 39 C 25.21055 38.994673 33.848223 35.378061 34.65625 34.5625 C 35.464277 33.746939 39.005327 25.08555 39 23.9375 C 38.994673 22.78945 35.378061 14.151777 34.5625 13.34375 C 33.746939 12.535723 25.08555 8.9946726 23.9375 9 z M 23.875 13.53125 L 34.71875 23.90625 L 24.09375 35 L 13.25 24.65625 L 23.875 13.53125 z M 24 18 C 20.686292 18 18 20.686292 18 24 C 18 27.313708 20.686292 30 24 30 C 27.313708 30 30 27.313708 30 24 C 30 20.686292 27.313708 18 24 18 z "
     id="path3057" />
</svg>

<svg xmlns="http://www.w3.org/2000/svg" viewBox="0 0 48 48">
 <g>
  <path d="m 36.31 5 c 5.859 4.062 9.688 10.831 9.688 18.5 c 0 12.426 -10.07 22.5 -22.5 22.5 c -7.669 0 -14.438 -3.828 -18.5 -9.688 c 1.037 1.822 2.306 3.499 3.781 4.969 c 4.085 3.712 9.514 5.969 15.469 5.969 c 12.703 0 23 -10.298 23 -23 c 0 -5.954 -2.256 -11.384 -5.969 -15.469 c -1.469 -1.475 -3.147 -2.744 -4.969 -3.781 z m 4.969 3.781 c 3.854 4.113 6.219 9.637 6.219 15.719 c 0 12.703 -10.297 23 -23 23 c -6.081 0 -11.606 -2.364 -15.719 -6.219 c 4.16 4.144 9.883 6.719 16.219 6.719 c 12.703 0 23 -10.298 23 -23 c 0 -6.335 -2.575 -12.06 -6.719 -16.219 z" style="opacity:0.05"/>
  <path d="m 41.28 8.781 c 3.712 4.085 5.969 9.514 5.969 15.469 c 0 12.703 -10.297 23 -23 23 c -5.954 0 -11.384 -2.256 -15.469 -5.969 c 4.113 3.854 9.637 6.219 15.719 6.219 c 12.703 0 23 -10.298 23 -23 c 0 -6.081 -2.364 -11.606 -6.219 -15.719 z" style="opacity:0.1"/>
  <path d="m 31.25 2.375 c 8.615 3.154 14.75 11.417 14.75 21.13 c 0 12.426 -10.07 22.5 -22.5 22.5 c -9.708 0 -17.971 -6.135 -21.12 -14.75 a 23 23 0 0 0 44.875 -7 a 23 23 0 0 0 -16 -21.875 z" style="opacity:0.2"/>
 </g>
 <g style="fill:#409686;fill-opacity:1">
  <path d="m 24 1 c 12.703 0 23 10.297 23 23 c 0 12.703 -10.297 23 -23 23 -12.703 0 -23 -10.297 -23 -23 0 -12.703 10.297 -23 23 -23 z"/>
 </g>
 <g>
  <path d="m 40.03 7.531 c 3.712 4.084 5.969 9.514 5.969 15.469 0 12.703 -10.297 23 -23 23 c -5.954 0 -11.384 -2.256 -15.469 -5.969 4.178 4.291 10.01 6.969 16.469 6.969 c 12.703 0 23 -10.298 23 -23 0 -6.462 -2.677 -12.291 -6.969 -16.469 z" style="opacity:0.1"/>
 </g>
 <path d="m 24.938 10 c -1.148 0.005 -9.786 3.622 -10.594 4.438 -0.808 0.816 -4.349 9.477 -4.344 10.625 0.005 1.148 3.622 9.786 4.438 10.594 0.816 0.808 9.477 4.349 10.625 4.344 1.148 -0.005 9.786 -3.622 10.594 -4.438 0.808 -0.816 4.349 -9.477 4.344 -10.625 -0.005 -1.148 -3.622 -9.786 -4.438 -10.594 -0.816 -0.808 -9.477 -4.349 -10.625 -4.344 z m -0.063 4.531 10.844 10.375 -10.625 11.09 -10.844 -10.344 10.625 -11.125 z m 0.125 4.469 c -3.314 0 -6 2.686 -6 6 0 3.314 2.686 6 6 6 3.314 0 6 -2.686 6 -6 0 -3.314 -2.686 -6 -6 -6 z" style="fill:#000;opacity:0.1;fill-opacity:1;stroke:none;fill-rule:nonzero"/>
 <path d="m 23.938 9 c -1.148 0.005 -9.786 3.622 -10.594 4.438 c -0.808 0.816 -4.349 9.477 -4.344 10.625 c 0.005 1.148 3.622 9.786 4.438 10.594 c 0.816 0.808 9.477 4.349 10.625 4.344 c 1.148 -0.005 9.786 -3.622 10.594 -4.438 c 0.808 -0.816 4.349 -9.477 4.344 -10.625 c -0.005 -1.148 -3.622 -9.786 -4.438 -10.594 c -0.816 -0.808 -9.477 -4.349 -10.625 -4.344 z m -0.063 4.531 l 10.844 10.375 l -10.625 11.09 l -10.844 -10.344 l 10.625 -11.125 z m 0.125 4.469 c -3.314 0 -6 2.686 -6 6 c 0 3.314 2.686 6 6 6 c 3.314 0 6 -2.686 6 -6 c 0 -3.314 -2.686 -6 -6 -6 z" style="fill:#fdf568;opacity:1;fill-opacity:1;stroke:none;fill-rule:nonzero"/>
</svg>
